src/components/stable/gux-icon/icons/beyond-logo.svg

<svg id="Layer_1" data-name="Layer 1" xmlns="http://www.w3.org/2000/svg" viewBox="0 0 14 14"><path d="M8.92193,4.09046a3.58711,3.58711,0,0,0-3.11-2.51025,1.97562,1.97562,0,0,0-3.90038.44554V8.29239a5.17265,5.17265,0,0,0-.02863.54055A5.11706,5.11706,0,0,0,12.11706,8.834V8.83294A5.11767,5.11767,0,0,0,8.92193,4.09046Zm-.52156-.179a5.10568,5.10568,0,0,0-2.536-.06757V2.02575L5.86387,2.0152A3.16308,3.16308,0,0,1,8.40037,3.9115Zm.25372,1.239v3.13a3.15757,3.15757,0,0,1-5.493,2.12507A1.97163,1.97163,0,0,0,5.86441,8.57V4.28457a4.68208,4.68208,0,0,1,2.7022.1314A3.16692,3.16692,0,0,1,8.65409,5.15049ZM5.436,2.02575V3.96026A5.13,5.13,0,0,0,2.33888,6.72213V5.15049a3.16017,3.16017,0,0,1,3.09561-3.156C5.43469,2.005,5.43605,2.0152,5.436,2.02575ZM2.44211,9.08311a3.161,3.161,0,0,1-.10223-.76284A4.692,4.692,0,0,1,5.436,4.41353V8.57a1.54825,1.54825,0,0,1-2.99393.51312ZM2.33888,2.02575a1.54831,1.54831,0,0,1,3.02889-.45691A3.58389,3.58389,0,0,0,2.33888,3.4522ZM7,13.52269A4.68961,4.68961,0,0,1,2.55524,10.3262,3.58314,3.58314,0,0,0,9.08139,8.28052v-3.13a3.613,3.613,0,0,0-.0401-.53643A4.688,4.688,0,0,1,7,13.52269Z"/></svg>

<svg data-name="Layer 1" xmlns="http://www.w3.org/2000/svg" viewBox="0 0 14 14"><path d="M8.922 4.09a3.587 3.587 0 00-3.11-2.51 1.976 1.976 0 00-3.9.446v6.266a5.173 5.173 0 00-.03.54 5.117 5.117 0 0010.235.002v-.001A5.118 5.118 0 008.922 4.09zM8.4 3.911a5.106 5.106 0 00-2.536-.067V2.016A3.163 3.163 0 018.4 3.911zm.254 1.24v3.13a3.158 3.158 0 01-5.493 2.125A1.972 1.972 0 005.864 8.57V4.285a4.682 4.682 0 012.703.131 3.167 3.167 0 01.087.734zM5.436 2.025V3.96a5.13 5.13 0 00-3.097 2.762V5.15a3.16 3.16 0 013.095-3.156l.002.032zM2.442 9.083a3.161 3.161 0 01-.102-.763 4.692 4.692 0 013.096-3.906V8.57a1.548 1.548 0 01-2.994.513zM2.34 2.026a1.548 1.548 0 013.029-.457 3.584 3.584 0 00-3.03 1.883zM7 13.523a4.69 4.69 0 01-4.445-3.197 3.583 3.583 0 006.526-2.045V5.15a3.613 3.613 0 00-.04-.537A4.688 4.688 0 017 13.523z"/></svg>
